PortableApps/LibreOfficePortable/App/libreoffice/help/media/icon-themes/cmd/sc_hidedetail.svg

<svg viewBox="0 0 16 16" xmlns="http://www.w3.org/2000/svg"><path d="m7.4882812 2c-.2703603 0-.4882812.2179209-.4882812.4882812v.023438c0 .2703599.2179209.4882808.4882812.4882808h7.0234378c.27036 0 .488281-.2179209.488281-.4882812v-.0234376c0-.2703603-.217921-.4882812-.488281-.4882812zm-.0117187 2c-.2637206 0-.4765625.2128419-.4765625.4765625v.046875c0 .2637206.2128419.4765625.4765625.4765625h7.0468755c.26372 0 .476562-.2128419.476562-.4765625v-.046875c0-.2637206-.212842-.4765625-.476562-.4765625zm1 3c-.2637206 0-.4765625.2128419-.4765625.4765625v.046875c0 .2637206.2128419.4765625.4765625.4765625h6.0468755c.26372 0 .476562-.2128419.476562-.4765625v-.046875c0-.2637206-.212842-.4765625-.476562-.4765625zm-.0117187 2c-.2570812 0-.4648438.2077626-.4648438.4648438v.070312c0 .2570816.2077626.4648442.4648438.4648442h6.0703122c.257081 0 .464844-.2077626.464844-.4648438v-.0703124c0-.2570812-.207763-.4648438-.464844-.4648438zm-.9648438 3c-.277 0-.5.223-.5.5s.223.5.5.5h7c.277 0 .5-.223.5-.5s-.223-.5-.5-.5zm0 2c-.277 0-.5.223-.5.5s.223.5.5.5h7c.277 0 .5-.223.5-.5s-.223-.5-.5-.5z" fill="#808080"/><path d="m1 7h6v2h-6z" fill="#e68497"/></svg>

<svg viewBox="0 0 16 16" xmlns="http://www.w3.org/2000/svg">
  <path
     style="fill:#808080"
     d="M 7.4882812,2 C 7.2179209,2 7,2.2179209 7,2.4882812 v 0.023438 C 7,2.7820791 7.2179209,3 7.4882812,3 H 14.511719 C 14.782079,3 15,2.7820791 15,2.5117188 V 2.4882812 C 15,2.2179209 14.782079,2 14.511719,2 Z M 7.4765625,4 C 7.2128419,4 7,4.2128419 7,4.4765625 v 0.046875 C 7,4.7871581 7.2128419,5 7.4765625,5 H 14.523438 C 14.787158,5 15,4.7871581 15,4.5234375 V 4.4765625 C 15,4.2128419 14.787158,4 14.523438,4 Z m 1,3 C 8.2128419,7 8,7.2128419 8,7.4765625 v 0.046875 C 8,7.7871581 8.2128419,8 8.4765625,8 H 14.523438 C 14.787158,8 15,7.7871581 15,7.5234375 V 7.4765625 C 15,7.2128419 14.787158,7 14.523438,7 Z M 8.4648438,9 C 8.2077626,9 8,9.2077626 8,9.4648438 v 0.070312 C 8,9.7922374 8.2077626,10 8.4648438,10 H 14.535156 C 14.792237,10 15,9.7922374 15,9.5351562 V 9.4648438 C 15,9.2077626 14.792237,9 14.535156,9 Z M 7.5,12 C 7.223,12 7,12.223 7,12.5 7,12.777 7.223,13 7.5,13 h 7 C 14.777,13 15,12.777 15,12.5 15,12.223 14.777,12 14.5,12 Z m 0,2 C 7.223,14 7,14.223 7,14.5 7,14.777 7.223,15 7.5,15 h 7 C 14.777,15 15,14.777 15,14.5 15,14.223 14.777,14 14.5,14 Z"
     />
  <path
     style="fill:#e68497"
     d="M 1,7 H 7 V 9 H 1 Z"
     />
</svg>
